<?xml version="1.0" encoding="UTF-8"?>
<map version="1.10" tiledversion="1.11.0" orientation="orthogonal" renderorder="right-down" width="12" height="11" tilewidth="64" tileheight="84" infinite="0" nextlayerid="8" nextobjectid="71">
 <editorsettings>
  <export target="ice-map1.json" format="json"/>
 </editorsettings>
 <tileset firstgid="1" source="ice-tileset.tsx"/>
 <layer id="1" name="Background" width="12" height="11">
  <data encoding="csv">
4,3,6,7,11,3,13,9,13,3,7,5,
5,13,13,2,6,4,5,6,3,5,10,3,
7,5,6,15,11,5,12,7,14,14,6,5,
11,6,9,2,10,3,5,6,3,5,2,11,
6,7,6,3,5,9,2,13,4,14,7,12,
4,13,4,12,6,4,3,7,3,6,5,3,
3,2,4,7,13,13,13,4,11,5,13,2,
13,11,13,5,3,4,6,5,8,15,14,5,
4,3,2,6,1,3,13,13,7,6,5,4,
2,12,14,5,6,7,2,3,4,13,3,1,
5,4,7,4,12,14,4,11,5,7,2,6
</data>
 </layer>
 <objectgroup id="2" name="Collision">
  <object id="7" x="0" y="0">
   <polyline points="0,0 256,0"/>
  </object>
  <object id="8" x="320" y="0">
   <polyline points="0,0 64,0"/>
  </object>
  <object id="9" x="576" y="0">
   <polyline points="0,0 192,0"/>
  </object>
  <object id="11" x="768" y="0">
   <polyline points="0,0 0,252"/>
  </object>
  <object id="12" x="768" y="420">
   <polyline points="0,0 0,336"/>
  </object>
  <object id="13" x="768" y="840">
   <polyline points="0,0 0,84"/>
  </object>
  <object id="14" x="512" y="924">
   <polyline points="0,0 256,0"/>
  </object>
  <object id="15" x="384" y="924">
   <polyline points="0,0 64,0"/>
  </object>
  <object id="16" x="256" y="924">
   <polyline points="0,0 -256,0"/>
  </object>
  <object id="17" x="0" y="924">
   <polyline points="0,0 0,-252"/>
  </object>
  <object id="18" x="0" y="588">
   <polyline points="0,0 0,-252"/>
  </object>
  <object id="19" x="0" y="252">
   <polyline points="0,0 0,-252"/>
  </object>
  <object id="21" x="64" y="84" width="128" height="84"/>
  <object id="22" x="256" y="0" width="64" height="84"/>
  <object id="23" x="384" y="0" width="192" height="84"/>
  <object id="24" x="640" y="84" width="64" height="84"/>
  <object id="25" x="256" y="168" width="64" height="84"/>
  <object id="26" x="384" y="168" width="64" height="84"/>
  <object id="27" x="512" y="168" width="128" height="84"/>
  <object id="28" x="0" y="252" width="64" height="84"/>
  <object id="29" x="128" y="252" width="64" height="84"/>
  <object id="30" x="256" y="252" width="64" height="84"/>
  <object id="31" x="704" y="252" width="64" height="84"/>
  <object id="32" x="320" y="336" width="64" height="84"/>
  <object id="33" x="448" y="336" width="64" height="84"/>
  <object id="34" x="576" y="336" width="64" height="84"/>
  <object id="35" x="704" y="252" height="84"/>
  <object id="36" x="704" y="336" width="64" height="84"/>
  <object id="37" x="64" y="420" width="64" height="84"/>
  <object id="38" x="192" y="420" width="64" height="84"/>
  <object id="39" x="256" y="504" width="192" height="84"/>
  <object id="40" x="512" y="504" width="64" height="168"/>
  <object id="41" x="640" y="504" width="64" height="168"/>
  <object id="42" x="0" y="588" width="192" height="84"/>
  <object id="43" x="256" y="672" width="64" height="84"/>
  <object id="44" x="384" y="672" width="128" height="84"/>
  <object id="45" x="64" y="756" width="128" height="84"/>
  <object id="46" x="576" y="756" width="64" height="84"/>
  <object id="47" x="704" y="756" width="64" height="84"/>
  <object id="48" x="256" y="840" width="128" height="84"/>
  <object id="49" x="448" y="840" width="64" height="84"/>
 </objectgroup>
 <objectgroup id="3" name="PlayerSpawn">
  <object id="51" name="Player" x="384" y="336" width="64" height="84"/>
 </objectgroup>
 <objectgroup id="4" name="ItemSpawnList">
  <object id="52" name="ItemSpawn" x="0" y="84" width="64" height="84"/>
  <object id="54" name="ItemSpawn" x="704" y="168" width="64" height="84"/>
  <object id="55" name="ItemSpawn" x="384" y="588" width="64" height="84"/>
  <object id="56" name="ItemSpawn" x="64" y="672" width="64" height="84"/>
  <object id="57" name="ItemSpawn" x="640" y="840" width="64" height="84"/>
 </objectgroup>
 <objectgroup id="5" name="GemSpawnList">
  <object id="58" name="GemSpawn" x="448" y="84" width="64" height="84"/>
  <object id="59" name="GemSpawn" x="64" y="336" width="64" height="84"/>
  <object id="60" name="GemSpawn" x="320" y="672" width="64" height="84"/>
  <object id="61" name="GemSpawn" x="512" y="420" width="64" height="84"/>
  <object id="63" name="GemSpawn" x="128" y="840" width="64" height="84"/>
 </objectgroup>
 <objectgroup id="6" name="Mineshaft">
  <object id="65" name="Mineshaft" x="192" y="168" width="64" height="84"/>
  <object id="66" name="Mineshaft" x="576" y="588" width="64" height="84"/>
 </objectgroup>
 <objectgroup id="7" name="OreSpawnList">
  <object id="67" name="OreSpawn" x="640" y="0" width="64" height="84"/>
  <object id="68" name="OreSpawn" x="512" y="840" width="64" height="84"/>
  <object id="69" name="OreSpawn" x="0" y="756" width="64" height="84"/>
  <object id="70" name="OreSpawn" x="64" y="168" width="64" height="84"/>
 </objectgroup>
</map>
