<?xml version="1.0" encoding="UTF-8"?>
<map version="1.10" tiledversion="1.11.0" orientation="orthogonal" renderorder="right-down" width="12" height="11" tilewidth="64" tileheight="84" infinite="0" nextlayerid="12" nextobjectid="121">
 <editorsettings>
  <export target="mars-map2.json" format="json"/>
 </editorsettings>
 <tileset firstgid="1" source="mars-tileset.tsx"/>
 <layer id="1" name="Background" width="12" height="11">
  <data encoding="csv">
4,12,7,4,11,4,7,10,8,7,11,8,
7,8,4,21,20,5,8,4,14,12,7,10,
11,2,8,7,4,9,7,17,11,2,4,19,
8,4,7,10,11,2,7,4,8,4,7,11,
21,15,11,4,8,4,11,21,6,20,13,8,
4,7,8,3,6,15,7,11,4,7,8,7,
8,17,4,4,11,7,19,7,17,15,4,10,
11,4,14,17,15,7,4,8,11,4,7,8,
4,10,8,7,11,4,12,7,21,4,5,7,
7,19,7,21,15,8,7,11,7,8,19,4,
7,4,8,4,11,7,2,8,19,4,7,11
</data>
 </layer>
 <objectgroup id="4" name="PlayerSpawn">
  <object id="63" name="Player" x="384" y="336" width="64" height="84"/>
 </objectgroup>
 <objectgroup id="10" name="ItemSpawnList">
  <object id="115" name="ItemSpawn" x="704" y="840" width="64" height="84"/>
  <object id="116" name="ItemSpawn" x="256" y="672" width="64" height="84"/>
  <object id="117" name="ItemSpawn" x="64" y="252" width="64" height="84"/>
  <object id="118" name="ItemSpawn" x="448" y="588" width="64" height="84"/>
  <object id="120" name="ItemSpawn" x="576" y="0" width="64" height="84"/>
 </objectgroup>
 <objectgroup id="9" name="Mineshaft">
  <object id="64" name="Mineshaft" x="512" y="84" width="64" height="84"/>
  <object id="66" name="Mineshaft" x="128" y="588" width="64" height="84"/>
 </objectgroup>
 <objectgroup id="5" name="Collision">
  <object id="70" x="0" y="336">
   <polyline points="0,0 0,-336"/>
  </object>
  <object id="72" x="0" y="0">
   <polyline points="0,0 64,0"/>
  </object>
  <object id="73" x="128" y="0">
   <polyline points="0,0 320,0"/>
  </object>
  <object id="74" x="512" y="0">
   <polyline points="0,0 256,0"/>
  </object>
  <object id="75" x="768" y="0">
   <polyline points="0,0 0,84"/>
  </object>
  <object id="76" x="768" y="252">
   <polyline points="0,0 0,252"/>
  </object>
  <object id="77" x="768" y="588">
   <polyline points="0,0 0,336"/>
  </object>
  <object id="78" x="768" y="924">
   <polyline points="0,0 -192,0"/>
  </object>
  <object id="79" x="512" y="924">
   <polyline points="0,0 -64,0"/>
  </object>
  <object id="80" x="384" y="924">
   <polyline points="0,0 -384,0"/>
  </object>
  <object id="81" x="0" y="924">
   <polyline points="0,0 0,-504"/>
  </object>
  <object id="82" x="0" y="336" width="128" height="84"/>
  <object id="83" x="64" y="0" width="64" height="84"/>
  <object id="84" x="64" y="168" width="64" height="84"/>
  <object id="85" x="192" y="252" width="64" height="84"/>
  <object id="86" x="192" y="84" width="192" height="84"/>
  <object id="87" x="320" y="168" width="64" height="168"/>
  <object id="88" x="448" y="0" width="64" height="84"/>
  <object id="89" x="448" y="168" width="64" height="84"/>
  <object id="90" x="576" y="84" width="64" height="168"/>
  <object id="91" x="704" y="84" width="64" height="168"/>
  <object id="92" x="448" y="336" width="256" height="84"/>
  <object id="93" x="192" y="420" width="192" height="84"/>
  <object id="94" x="64" y="504" width="64" height="84"/>
  <object id="95" x="384" y="504" width="64" height="84"/>
  <object id="96" x="512" y="504" width="128" height="84"/>
  <object id="97" x="704" y="504" width="64" height="84"/>
  <object id="98" x="192" y="588" width="128" height="84"/>
  <object id="99" x="384" y="672" width="64" height="84"/>
  <object id="100" x="64" y="672" width="64" height="168"/>
  <object id="101" x="192" y="756" width="128" height="84"/>
  <object id="102" x="384" y="840" width="64" height="84"/>
  <object id="103" x="512" y="672" width="64" height="84"/>
  <object id="104" x="512" y="840" width="64" height="84"/>
  <object id="105" x="640" y="672" width="64" height="168"/>
 </objectgroup>
 <objectgroup id="8" name="GemSpawnList">
  <object id="111" name="GemSpawn" x="192" y="0" width="64" height="84"/>
  <object id="112" name="GemSpawn" x="576" y="420" width="64" height="84"/>
  <object id="113" name="GemSpawn" x="192" y="840" width="64" height="84"/>
  <object id="114" name="GemSpawn" x="0" y="504" width="64" height="84"/>
 </objectgroup>
 <objectgroup id="11" name="OreSpawnList">
  <object id="106" name="OreSpawn" x="0" y="756" width="64" height="84"/>
  <object id="107" name="OreSpawn" x="448" y="840" width="64" height="84"/>
  <object id="109" name="OreSpawn" x="0" y="168" width="64" height="84"/>
  <object id="110" name="OreSpawn" x="704" y="0" width="64" height="84"/>
 </objectgroup>
</map>
